X:114
T:McElroy's Fancy
T:Pat Hogan's Two
R:polka
H:A version of #7. 2nd part cf. #65.
D:Martin O'Connor: The Connachtman's Rambles
Z:id:hn-polka-114
M:2/4
L:1/8
K:Edor
B>c BA|FA D2|B>c BA|Be ed|B>c BA|FA D>E|FD AF|E2 E2:|
|:Be ed/e/|fe dA|Be ed/e/|fe d2|Be ed/e/|fe dB|AF dF|FE E2:|

